app/images/adress-icon.svg

<svg width="30" height="30" viewBox="0 0 30 30" fill="none" xmlns="http://www.w3.org/2000/svg">
<path d="M14.9939 0C8.36497 0 2.96875 5.39623 2.96875 12.0252C2.96875 12.7799 3.03793 13.5409 3.18259 14.283C3.18888 14.327 3.21403 14.4591 3.26435 14.6855C3.44674 15.4969 3.71718 16.2956 4.06938 17.0566C5.36498 20.1069 8.21403 24.7925 14.4656 29.8113C14.6228 29.9371 14.8115 30 15.0002 30C15.1889 30 15.3776 29.9371 15.5348 29.8113C21.7801 24.7925 24.6354 20.1069 25.931 17.0566C26.2832 16.2956 26.5537 15.5031 26.736 14.6855C26.7864 14.4591 26.8115 14.327 26.8178 14.283C26.9562 13.5409 27.0316 12.7799 27.0316 12.0252C27.0191 5.39623 21.6228 0 14.9939 0ZM25.1323 13.9874C25.1323 14 25.126 14.0126 25.126 14.0252C25.1197 14.0566 25.1008 14.1509 25.0694 14.2956C25.0694 14.3019 25.0694 14.3019 25.0694 14.3082C24.9121 15.0126 24.6794 15.6981 24.3713 16.3585C24.365 16.3648 24.365 16.3774 24.3587 16.3836C23.1826 19.1698 20.604 23.4214 14.9939 28.0566C9.38384 23.4214 6.80523 19.1698 5.62913 16.3836C5.62284 16.3774 5.62284 16.3648 5.61655 16.3585C5.31466 15.7044 5.08196 15.0126 4.91843 14.3082C4.91843 14.3019 4.91843 14.3019 4.91843 14.2956C4.8807 14.1509 4.86812 14.0566 4.86183 14.0252C4.86183 14.0126 4.85554 14 4.85554 13.9811C4.72976 13.3333 4.66686 12.6792 4.66686 12.0189C4.66686 6.32704 9.30208 1.69182 14.9939 1.69182C20.6857 1.69182 25.3209 6.32704 25.3209 12.0189C25.3209 12.6855 25.2581 13.3459 25.1323 13.9874Z" fill="black"/>
<path d="M14.9941 4.52197C10.7866 4.52197 7.35889 7.94965 7.35889 12.1572C7.35889 16.3647 10.7866 19.7924 14.9941 19.7924C19.2016 19.7924 22.6293 16.3647 22.6293 12.1572C22.6293 7.94965 19.2016 4.52197 14.9941 4.52197ZM14.9941 18.0943C11.7174 18.0943 9.057 15.4276 9.057 12.1572C9.057 8.88675 11.7237 6.22009 14.9941 6.22009C18.2645 6.22009 20.9312 8.88675 20.9312 12.1572C20.9312 15.4276 18.2708 18.0943 14.9941 18.0943Z" fill="black"/>
</svg>

<svg width="30" height="30" viewBox="0 0 30 30" xmlns="http://www.w3.org/2000/svg" fill="none"><path d="M14.994 0c-6.629 0-12.025 5.396-12.025 12.025 0 .755.069 1.516.214 2.258l.082.402c.182.811.453 1.61.805 2.371 1.296 3.05 4.145 7.736 10.396 12.755.157.126.346.189.535.189.189 0 .377-.063.535-.189 6.245-5.019 9.101-9.704 10.396-12.755.352-.761.623-1.553.805-2.371l.082-.402c.138-.742.214-1.503.214-2.258-.012-6.629-5.409-12.025-12.038-12.025zm10.138 13.987l-.006.038-.057.27v.013c-.157.704-.39 1.39-.698 2.05l-.013.025c-1.176 2.786-3.755 7.038-9.365 11.673-5.61-4.635-8.189-8.887-9.365-11.673l-.013-.025c-.302-.654-.535-1.346-.698-2.05v-.013l-.057-.27-.006-.044c-.126-.648-.189-1.302-.189-1.962 0-5.692 4.635-10.327 10.327-10.327s10.327 4.635 10.327 10.327c0 .667-.063 1.327-.189 1.968zM14.994 4.522c-4.207 0-7.635 3.428-7.635 7.635s3.428 7.635 7.635 7.635 7.635-3.428 7.635-7.635c0-4.208-3.428-7.635-7.635-7.635zm0 13.572c-3.277 0-5.937-2.667-5.937-5.937 0-3.27 2.667-5.937 5.937-5.937 3.27 0 5.937 2.667 5.937 5.937 0 3.27-2.66 5.937-5.937 5.937z"/></svg>
